Dominus_Funeral/symbolic/status/task-past-due-symbolic.svg

<svg xmlns="http://www.w3.org/2000/svg" viewBox="0 0 24 24"><path d="M12 2c-1.19 0-2.19.76-2.56 1.82h-3.8a1.82 1.82 0 0 0-1.82 1.82v14.54A1.82 1.82 0 0 0 5.64 22h12.72a1.82 1.82 0 0 0 1.82-1.82V5.64a1.82 1.82 0 0 0-1.82-1.82h-3.8A2.72 2.72 0 0 0 12 2zm-.04 1.82a.9.9 0 0 1 .04 0 .9.9 0 0 1 0 1.82.9.9 0 0 1-.04-1.82zM5.64 5.64h1.81v2.72h9.1V5.64h1.81v3.68h-.04l-1.77 3.6-2.28-3.6-2.27 3.6-2.27-3.6-2.28 3.6-1.81-3.37z" fill="gray"/></svg>

<?xml version="1.0" encoding="UTF-8" standalone="no"?>
<svg
   xmlns:dc="http://purl.org/dc/elements/1.1/"
   xmlns:cc="http://creativecommons.org/ns#"
   xmlns:rdf="http://www.w3.org/1999/02/22-rdf-syntax-ns#"
   xmlns:svg="http://www.w3.org/2000/svg"
   xmlns="http://www.w3.org/2000/svg"
   xmlns:sodipodi="http://sodipodi.sourceforge.net/DTD/sodipodi-0.dtd"
   xmlns:inkscape="http://www.inkscape.org/namespaces/inkscape"
   viewBox="0 0 24 24"
   version="1.1"
   id="svg4"
   sodipodi:docname="task-past-due-symbolic.svg"
   inkscape:version="0.92.4 (5da689c313, 2019-01-14)">
  <metadata
     id="metadata10">
    <rdf:RDF>
      <cc:Work
         rdf:about="">
        <dc:format>image/svg+xml</dc:format>
        <dc:type
           rdf:resource="http://purl.org/dc/dcmitype/StillImage" />
        <dc:title></dc:title>
      </cc:Work>
    </rdf:RDF>
  </metadata>
  <defs
     id="defs8" />
  <sodipodi:namedview
     pagecolor="#ffffff"
     bordercolor="#666666"
     borderopacity="1"
     objecttolerance="10"
     gridtolerance="10"
     guidetolerance="10"
     inkscape:pageopacity="0"
     inkscape:pageshadow="2"
     inkscape:window-width="1085"
     inkscape:window-height="480"
     id="namedview6"
     showgrid="false"
     inkscape:zoom="9.8333333"
     inkscape:cx="1.0677966"
     inkscape:cy="12"
     inkscape:window-x="0"
     inkscape:window-y="25"
     inkscape:window-maximized="0"
     inkscape:current-layer="svg4" />
  <path
     d="M 12,2 C 10.81,2 9.81,2.76 9.44,3.82 H 5.64 A 1.82,1.82 0 0 0 3.82,5.64 V 20.18 A 1.82,1.82 0 0 0 5.64,22 h 12.72 a 1.82,1.82 0 0 0 1.82,-1.82 V 5.64 A 1.82,1.82 0 0 0 18.36,3.82 h -3.8 A 2.72,2.72 0 0 0 12,2 Z m -0.04,1.82 a 0.9,0.9 0 0 1 0.04,0 0.91,0.91 0 0 1 0,1.82 0.91021975,0.91021975 0 0 1 -0.04,-1.82 z M 5.64,5.64 h 1.81 v 2.72 h 9.1 V 5.64 h 1.81 V 9.32 H 18.32 L 16.55,12.92 14.27,9.32 12,12.92 9.73,9.32 7.45,12.92 5.64,9.55 Z"
     id="path2"
     inkscape:connector-curvature="0"
     style="fill:#808080" />
</svg>
